X:1
T:The Royal Telephone
T:The Royal Telephone
T:Frederick Martin Lehman
T:Frederick Martin Lehman, 1919
T:Public Domain Courtesy of the Cyber Hymnal™
T:Public Domain Courtesy of the Cyber Hymnal™
C:Frederick Martin Lehman
Z:Public Domain
Z:Courtesy of the Cyber Hymnal™
%%score ( 1 2 ) ( 3 4 )
L:1/8
Q:1/4=100
M:4/4
K:Db
V:1 treble 
V:2 treble 
V:3 bass 
V:4 bass 
V:1
 [FA][FA][DF][FA] [Fd][Fd] z2 | [GB][GB][DG][GB] [FA]2 z2 | [EG][EG][CE][EG] [Gc][Gc] z2 | %3
w: 1.~Cen- tral’s nev- er “busy,” Al-|ways on the line; You|may hear from Heav- en, Al-|
w: 2.~There will be no charg- es,|Tel- e- phone is free,|It was built for serv- ice,|
w: 3.~Fail to get the an- swer?|Sa- tan’s crossed your wire,|By some strong de- lu- sion,|
w: 4.~If your line is “ground- ed,”|And con- nec- tion true|Has been lost with Je- sus,|
w: 5.~Car- nal com- bi- na- tions|Can- not get con- trol|Of this line to glo- ry,|
 [GB][GB][EG][FA] [DF]2 z2 | [FA][FA][DF][FA] [Fd][Fd] z2 | [Ge][Gd][Gc][Gd] [GB]2 z2 | %6
w: most an- y time; ’Tis|a roy- al serv- ice, Free|for one and all; When|
w: Just for you and me;|There will be no wait- ing|On this roy- al line,|
w: Or some base de- sire;|Take a- way ob- struc- tions,|God is on the throne,|
w: Tell you what to do:|Prayer and faith and prom- ise,|Mend the brok- en wire,|
w: An- chored in the soul;|Storm and tri- al can- not|Dis- con- nect the line,|
 [Gd][Gc][Gd][GB] [FA][DF]DE | [CF][CE][CF][CE] [A,D]2 z2 || %8
w: you get in trou- ble, Give this roy-|al line a call. *|
w: Tel- e- phone to glo- ry Al- ways|an- swers just in time.|
w: And you’ll get your an- swer Thru this|roy- al tel- e- phone.|
w: Till your soul is burn- ing With the|pen- te- cos- tal fire|
w: Held in cons- tant keep- ing By the|Fath- er’s hand di- vine.|
"^Refrain" [FA]3 [FA] [GB][FA][DF][FA] | [Fd][Gc] [Gc]>[Gc] [Gc]2 z2 | %10
w: ||
w: ||
w: Tel- e- phone to glo- ry,|O what joy di- vine!|
w: ||
w: ||
 [CE]3 [DF] [EG][FA][Gc][GB] | [GB][FA] [FA]>[FA] [FA]2 z2 | [FA]3 [FA] [GB][FA][DF][FA] | %13
w: |||
w: |||
w: I can feel the cur- rent,|mov- ing on the line,|Built by God the Fa- ther|
w: |||
w: |||
 [Fd][Ec][Ge][Fd] [GB]2 z2 | [Gd][Gc][Gd][GB] [FA][DF]D[DE] | [CF][CE][CF][CE] [A,D]2 z2 |] %16
w: |||
w: |||
w: for His loved and own,|We may talk to Je- sus thru this|roy- al tel- e- phone.|
w: |||
w: |||
V:2
 x8 | x8 | x8 | x8 | x8 | x8 | x6 DD | x8 || x8 | x8 | x8 | x8 | x8 | x8 | x6 D x | x8 |] %16
V:3
 [D,D][D,D][D,A,][D,A,] [D,A,][D,A,] z2 | [G,D][G,D][G,B,][G,D] [D,D]2 z2 | %2
 [A,C][A,C]A,[A,C] [A,,E,][A,,E,] z2 | [A,,A,][A,,A,][A,,A,][C,A,] [D,A,]2 z2 | %4
 [D,D][D,D][D,A,][D,A,] [D,A,][D,A,] z2 | [G,B,][G,B,][G,B,][G,B,] [G,D]2 z2 | %6
 [G,B,][G,=A,][G,B,][G,C] [D,D][D,_A,][B,,=G,][B,,G,] | [A,,A,][A,,A,][A,,A,][A,,G,] [D,F,]2 z2 || %8
 [D,D]3 [D,D] [D,D][D,D][D,A,][D,A,] | [A,,A,][E,A,] [E,A,]>[E,A,] [E,A,]2 z2 | %10
 [A,,A,]3 [A,,A,] [A,,A,][A,,A,][A,,A,][A,,C] | [D,D][D,D] [D,D]>[D,D] [D,D]2 z2 | %12
 [D,D]3 [D,D] [D,D][D,D][D,A,][D,A,] | [D,A,][D,A,][D,A,][D,D] [G,D]2 z2 | %14
 [G,B,][G,=A,][G,B,][G,C] [D,D][D,_A,][B,,=G,][B,,G,] | [A,,A,][A,,A,][A,,A,][A,,G,] [D,F,]2 z2 |] %16
V:4
 x8 | x8 | x2 A, x5 | x8 | x8 | x8 | x8 | x8 || x8 | x8 | x8 | x8 | x8 | x8 | x8 | x8 |] %16

